X: 471
T: Johnny McGill
C: Campbell arr Bert Murray
R: jig
B: Bert Murray's "Bon Accord Collection" 1999 p.47
%
Z: 2011 John Chambers <jc:trillian.mit.edu>
N: Removed dot from final D, to match the initial pickup note.
M: 6/8
L: 1/8
K: F
uf |\
cAA AGF | cAA (A2f) |cAA AGA | FDD (D2f) |\
cAA AGF | cAA AGF | GAB AGA | FDD (D2c) ||
f3 g3 | {fg}afd cAc | f3 g3 | {fg}afd dfg |\
afa geg | fdf fed | cAA AGA | FDD D2 |]

%%sep 2 1 500

